X:1
T:IN BIVOUAC
M:4/4
Q:1/4=120
K:F
c3BAAdc|c2BAG4|B3AGGdd|c3BA4|c3AAABc|d3ef2ed|
c3Ac3/2B/2AG|F6f_e|d5cd_e|f2d4dd|c3fe2de|
f6f_e|d5cd_e|f2d4d2|d2c3fe2|def7/4||
